X: 9
T: The Connaughtman's Rambles
R: jig
M: 6/8
L: 1/8
K: Edor
|:B>ee B>dd|BeB dBA|B>ee B>dd|BAB d2A|
B>ee B>dd|Bec dBA|d>BA GAB|AGE E2D||
B,2D GDD|EDE GDD|B,2D GAB|AGE E2D|
B,2D GDD|EDE GDD|B,2D GAB|AGE E3:|


Tune 19	Setting 19

